assets/Icon Transparent.svg

<svg xmlns="http://www.w3.org/2000/svg" fill="none" viewBox="0 0 1500 1500">
    <path fill="#359DC4" stroke="#000" stroke-width="32"
          d="M618.282 1072.89h647.438c2.82 0 5.49.52 8.31 2.03 2.96 1.58 5.37 3.99 6.95 6.94 1.5 2.82 2.02 5.49 2.02 8.32v264.71H601v-264.71c0-2.83.516-5.5 2.025-8.32 1.578-2.95 3.99-5.36 6.941-6.94 2.82-1.51 5.494-2.03 8.316-2.03ZM832 987.771H702c-.552 0-1 .448-1 1v79.999c0 .55.448 1 1 1h130c.552 0 1-.45 1-1v-79.999c0-.552-.448-1-1-1Zm350 0h-130c-.55 0-1 .448-1 1v79.999c0 .55.45 1 1 1h130c.55 0 1-.45 1-1v-79.999c0-.552-.45-1-1-1Z"/>
    <path fill="#D56FAC" stroke="#000" stroke-width="32"
          d="M415 987.771H285c-.552 0-1 .448-1 1v79.999c0 .55.448 1 1 1h130c.552 0 1-.45 1-1v-79.999c0-.552-.448-1-1-1Zm-226.718 85.119h322.436c2.822 0 5.496.52 8.316 2.03 2.951 1.58 5.363 3.99 6.941 6.94 1.509 2.82 2.025 5.49 2.025 8.32v264.71H171v-264.71c0-2.83.516-5.5 2.025-8.32 1.578-2.95 3.99-5.36 6.941-6.94 2.82-1.51 5.494-2.03 8.316-2.03Z"/>
    <path fill="#967ADC" stroke="#000" stroke-width="32"
          d="M188.282 660.894h647.436c2.822 0 5.496.517 8.316 2.025 2.951 1.578 5.363 3.99 6.941 6.941 1.509 2.82 2.025 5.494 2.025 8.316v264.718H171V678.176c0-2.822.516-5.496 2.025-8.316 1.578-2.951 3.99-5.363 6.941-6.941 2.82-1.508 5.494-2.025 8.316-2.025Zm213.718-85H272c-.552 0-1 .448-1 1v80c0 .553.448 1 1 1h130c.552 0 1-.447 1-1v-80c0-.552-.448-1-1-1Zm350 0H622c-.552 0-1 .448-1 1v80c0 .553.448 1 1 1h130c.552 0 1-.447 1-1v-80c0-.552-.448-1-1-1Z"/>
    <path fill="#4FC0E9" stroke="#000" stroke-width="32"
          d="M754.305 174.727 1312.76 495.41c2.43 1.398 4.48 3.175 6.14 5.895 1.74 2.847 2.6 6.158 2.46 9.529-.13 3.221-1.05 5.823-2.48 8.299L1184.3 751.386 596.035 413.583l134.578-232.254c1.434-2.475 3.239-4.566 5.974-6.293 2.861-1.807 6.168-2.729 9.516-2.652 3.199.074 5.768.945 8.202 2.343Z"/>
    <path fill="#4FC0E9" stroke="#000" stroke-width="32"
          d="M978.566 209.154 866.6 144.909c-.476-.273-1.089-.103-1.369.381l-40.611 70.03c-.28.483-.122 1.096.354 1.369l111.966 64.245c.476.273 1.089.103 1.369-.381l40.611-70.029c.28-.484.122-1.097-.354-1.37Zm303.114 175-111.97-64.245c-.48-.273-1.09-.103-1.37.381l-40.61 70.03c-.28.483-.12 1.096.35 1.369l111.97 64.245c.48.273 1.09.103 1.37-.381l40.61-70.029c.28-.484.12-1.097-.35-1.37Z"/>
</svg>

<svg width="1500" height="1500" viewBox="0 0 1500 1500" fill="none" xmlns="http://www.w3.org/2000/svg">
<path d="M618.282 1072.89H1265.72C1268.54 1072.89 1271.21 1073.41 1274.03 1074.92C1276.99 1076.5 1279.4 1078.91 1280.98 1081.86C1282.48 1084.68 1283 1087.35 1283 1090.18V1354.89H601V1090.18C601 1087.35 601.516 1084.68 603.025 1081.86C604.603 1078.91 607.015 1076.5 609.966 1074.92C612.786 1073.41 615.46 1072.89 618.282 1072.89Z" fill="#359DC4" stroke="black" stroke-width="32"/>
<path d="M832 987.771H702C701.448 987.771 701 988.219 701 988.771V1068.77C701 1069.32 701.448 1069.77 702 1069.77H832C832.552 1069.77 833 1069.32 833 1068.77V988.771C833 988.219 832.552 987.771 832 987.771Z" fill="#359DC4" stroke="black" stroke-width="32"/>
<path d="M1182 987.771H1052C1051.45 987.771 1051 988.219 1051 988.771V1068.77C1051 1069.32 1051.45 1069.77 1052 1069.77H1182C1182.55 1069.77 1183 1069.32 1183 1068.77V988.771C1183 988.219 1182.55 987.771 1182 987.771Z" fill="#359DC4" stroke="black" stroke-width="32"/>
<path d="M415 987.771H285C284.448 987.771 284 988.219 284 988.771V1068.77C284 1069.32 284.448 1069.77 285 1069.77H415C415.552 1069.77 416 1069.32 416 1068.77V988.771C416 988.219 415.552 987.771 415 987.771Z" fill="#D56FAC" stroke="black" stroke-width="32"/>
<path d="M188.282 1072.89H510.718C513.54 1072.89 516.214 1073.41 519.034 1074.92C521.985 1076.5 524.397 1078.91 525.975 1081.86C527.484 1084.68 528 1087.35 528 1090.18V1354.89H171V1090.18C171 1087.35 171.516 1084.68 173.025 1081.86C174.603 1078.91 177.015 1076.5 179.966 1074.92C182.786 1073.41 185.46 1072.89 188.282 1072.89Z" fill="#D56FAC" stroke="black" stroke-width="32"/>
<path d="M188.282 660.894H835.718C838.54 660.894 841.214 661.411 844.034 662.919C846.985 664.497 849.397 666.909 850.975 669.86C852.484 672.68 853 675.354 853 678.176V942.894H171V678.176C171 675.354 171.516 672.68 173.025 669.86C174.603 666.909 177.015 664.497 179.966 662.919C182.786 661.411 185.46 660.894 188.282 660.894Z" fill="#967ADC" stroke="black" stroke-width="32"/>
<path d="M402 575.894H272C271.448 575.894 271 576.342 271 576.894V656.894C271 657.447 271.448 657.894 272 657.894H402C402.552 657.894 403 657.447 403 656.894V576.894C403 576.342 402.552 575.894 402 575.894Z" fill="#967ADC" stroke="black" stroke-width="32"/>
<path d="M752 575.894H622C621.448 575.894 621 576.342 621 576.894V656.894C621 657.447 621.448 657.894 622 657.894H752C752.552 657.894 753 657.447 753 656.894V576.894C753 576.342 752.552 575.894 752 575.894Z" fill="#967ADC" stroke="black" stroke-width="32"/>
<path d="M754.305 174.727L1312.76 495.41C1315.19 496.808 1317.24 498.585 1318.9 501.305C1320.64 504.152 1321.5 507.463 1321.36 510.834C1321.23 514.055 1320.31 516.657 1318.88 519.133L1184.3 751.386L596.035 413.583L730.613 181.329C732.047 178.854 733.852 176.763 736.587 175.036C739.448 173.229 742.755 172.307 746.103 172.384C749.302 172.458 751.871 173.329 754.305 174.727Z" fill="#4FC0E9" stroke="black" stroke-width="32"/>
<path d="M978.566 209.154L866.6 144.909C866.124 144.636 865.511 144.806 865.231 145.29L824.62 215.32C824.34 215.803 824.498 216.416 824.974 216.689L936.94 280.934C937.416 281.207 938.029 281.037 938.309 280.553L978.92 210.524C979.2 210.04 979.042 209.427 978.566 209.154Z" fill="#4FC0E9" stroke="black" stroke-width="32"/>
<path d="M1281.68 384.154L1169.71 319.909C1169.23 319.636 1168.62 319.806 1168.34 320.29L1127.73 390.32C1127.45 390.803 1127.61 391.416 1128.08 391.689L1240.05 455.934C1240.53 456.207 1241.14 456.037 1241.42 455.553L1282.03 385.524C1282.31 385.04 1282.15 384.427 1281.68 384.154Z" fill="#4FC0E9" stroke="black" stroke-width="32"/>
</svg>
